svg/u1f367.svg

<svg viewBox="0 0 128 128" xmlns="http://www.w3.org/2000/svg">
  <radialGradient id="SVGID_1_" cx="63.703" cy="22.5248" gradientTransform="matrix(1.028679e-13 1 -1.6812 1.729384e-13 101.5711 -41.1782)" gradientUnits="userSpaceOnUse" r="53.8464">
    <stop offset="0.2225" stop-color="#F16592"/>
    <stop offset="0.358" stop-color="#F16793"/>
    <stop offset="0.4351" stop-color="#F37098"/>
    <stop offset="0.4974" stop-color="#F47D9F"/>
    <stop offset="0.547" stop-color="#F78FA8"/>
    <stop offset="0.6778" stop-color="#FBCAD6"/>
    <stop offset="0.7785" stop-color="#FEF0F4"/>
    <stop offset="0.831" stop-color="#FFFFFF"/>
  </radialGradient>
  <path d="M28.64,76.37l-8.07-10.42l0.84-5.21c0,0-6.39-20.33,3.86-35.96S51.32,4.49,66.77,5.67 S94.1,13.32,101.9,26.8c8.21,14.2,5.88,28.9,4.37,34.95s-3.86,14.45-3.86,14.45l-36.3,7.73L28.64,76.37z" fill="url(#SVGID_1_)"/>
  <path d="M101.82,31.28c0,0,22.16-18.37,23.37-19.59s1.98-1.56,1.94-2.74c-0.04-1.15-1.18-2.65-1.18-2.65 l-23.83,18.68l-1.89,3.57L101.82,31.28z" fill="#9C9C9C"/>
  <path d="M96.97,23.47c0,0,21.89-18.23,23.14-19.23s2.13-1.42,3.25-0.83s2.23,2.38,2.6,2.9 c0.12,0.17-25.74,22.25-25.74,22.25L96.97,23.47z" fill="#C8C8C8"/>
  <path d="M21.41,60.75c0,0-3.31,3.09-3.49,5.92c-0.23,3.69,0.38,10.65,1.57,12.71c1.19,2.06,3,5.49,4.76,6.87 c1.91,1.5,11.25,15.39,21.42,21.19c5.48,3.12,36.77,2.4,36.77,2.4s12.89-17.95,11.69-17.08c-1.19,0.87,9.08-6.85,10.27-7.83 c1.19-0.98,3.41-5.32,4.28-7.16c0.87-1.85,2.51-11.95,0.43-14.34c-1.28-1.48-2.86-1.67-2.86-1.67s-0.14,4.15-3.66,6.67 c-3.8,2.72-14.43,8.13-39.52,7.92c-24.88-0.22-35.43-4.98-39.13-9.87C22.1,64,21.41,60.75,21.41,60.75z" fill="#C9C9C9"/>
  <path d="M64.7,79.61c-19.23-0.24-29.82-3.26-36.25-6.24c-5.93-2.75-10.46-7.55-10.46-7.55 s-0.87,2.28-0.43,6.41c0.48,4.54,1.96,7.17,1.96,7.17s3.69,5.02,14.23,8.67c7.04,2.43,17.69,3.96,30.31,4.04 c34,0.22,44.01-12.99,44.01-12.99s1.78-3.2,2.16-8.85c0.21-3.16-0.33-5.21-0.33-5.21s-2.5,5.43-10.97,8.91 C92.27,76.69,81.97,79.83,64.7,79.61z" fill="#E0E0E0"/>
  <path d="M25.43,75.3c-0.96,0.61-0.25,5.04,0.12,5.74c0.74,1.39,4.47,3.32,5.78,2.87 c1.31-0.45,0.66-4.71,0.16-5.78S26.53,74.61,25.43,75.3z" fill="#FFFFFF"/>
  <path d="M23.71,85.66c0,0-0.33,5.36,2.63,14.55c2.76,8.6,5.89,12.81,7.22,14.11 c1.53,1.5,8.86,9.19,28.77,9.63s29.28-7.12,31.93-9.64c2.25-2.15,5.34-7.93,7.4-13.73c2.9-8.15,3.02-15.97,3.02-15.97 s-4.05,3.67-12.01,6.47c-6.92,2.44-16.81,4.08-29.38,3.78C32.33,94.11,23.71,85.66,23.71,85.66z" fill="#E0E0E0"/>
  <path d="M27.98,90.3c-0.73,0.94,0.78,8.01,3.11,14.09c1.38,3.61,3.73,7.73,6.1,9.69 c2.37,1.96,4.28,1.96,4.78,1.55c0.8-0.66-0.55-2.24-1.87-4.75s-2.93-5.68-4.48-10.24c-1.12-3.3-1.38-6.26-2.5-7.99 C32.56,91.79,28.64,89.45,27.98,90.3z" fill="#FFFFFF"/>
  <path d="M40.65,34.3c-1.5,2.71,0.18,4.87,2.52,4.94c3.05,0.09,3.7-3.6,2.61-5.12 C44.6,32.5,41.55,32.68,40.65,34.3z" fill="#D7598B"/>
  <path d="M36.14,23.93c1.08,1.52,3.76,1.01,5.03-0.31c1.27-1.31,1.79-3.32,0.66-4.46 c-1.14-1.14-3.19-1.4-4.9,0.26C35.22,21.08,35.48,23.01,36.14,23.93z" fill="#D7598B"/>
  <path d="M45.45,23.01c-1.18,1.05-0.61,3.1,0.79,3.5c1.84,0.52,2.93-0.78,2.93-2.14 C49.17,22.66,46.84,21.77,45.45,23.01z" fill="#D7598B"/>
  <path d="M50.18,13.29c-0.14,1.53,1.09,2.72,2.58,2.76c1.49,0.05,2.8-1.4,2.67-2.63 c-0.17-1.62-0.92-2.44-2.67-2.49S50.26,12.34,50.18,13.29z" fill="#D7598B"/>
  <path d="M32.04,32.05c-1.08-0.18-2.46,0.82-2.41,2.41s1.41,2.05,2.19,2.1s2.1-0.77,2.14-2.28 S32.86,32.19,32.04,32.05z" fill="#D7598B"/>
  <path d="M36.4,43.39c-1.03-0.75-2.45-0.31-3.32,0.83c-0.87,1.14-0.61,2.8,0.22,3.45 c0.83,0.66,2.49,0.48,3.32-0.61C37.15,46.37,37.84,44.44,36.4,43.39z" fill="#D7598B"/>
  <path d="M49.48,35.15c-1.79,0.15-2.09,1.84-2.06,2.76s0.96,2.47,2.53,2.26s2-1.94,1.86-2.78 C51.66,36.54,51.02,35.02,49.48,35.15z" fill="#D7598B"/>
  <path d="M57.04,45.7c-1.18,0.07-2.67,0.96-2.71,2.89s1.44,3.1,3.06,3.06s2.76-1.44,2.76-2.89 C60.15,46.93,58.53,45.62,57.04,45.7z" fill="#D7598B"/>
  <path d="M64.56,52.22c-0.04,1.53,1.27,2.8,3.02,2.84c1.75,0.04,3.98-2.97,1.97-4.9 C67.54,48.24,64.62,50.25,64.56,52.22z" fill="#D7598B"/>
  <path d="M58.88,54.49c-0.67,0.03-1.88,0.39-1.92,1.97c-0.04,1.36,1.18,1.92,2.06,1.97 c0.52,0.03,2.23-0.48,2.1-2.01S59.75,54.45,58.88,54.49z" fill="#D7598B"/>
  <path d="M82.78,45.95c0.04,2.01,1.21,3.02,2.98,3.12s3.53-1.44,3.4-3.93c-0.11-2.21-1.89-3.12-3.45-2.83 C84.16,42.59,82.73,43.4,82.78,45.95z" fill="#D7598B"/>
  <path d="M89.51,63.26c-1.28,0.98-1.25,2.69-0.63,3.37c0.63,0.67,2.12,1.22,3.42,0.16 c1.07-0.87,1.27-2.7,0.09-3.53C91.43,62.59,90.32,62.64,89.51,63.26z" fill="#DBEDF6"/>
  <path d="M73.21,64.13c-1.59,0.05-2.69,0.87-2.64,2.4c0.05,1.54,1.01,2.36,2.69,2.26 c1.68-0.1,2.64-1.35,2.26-2.98C75.31,64.92,74.27,64.1,73.21,64.13z" fill="#DBEDF6"/>
  <path d="M74.27,72.59c-0.47,0.94,0,2.4,1.78,2.55c1.78,0.14,2.69-0.67,2.74-1.73 c0.05-1.06-1.11-1.88-2.36-1.88C75.42,71.53,74.55,72.01,74.27,72.59z" fill="#DBEDF6"/>
  <path d="M55.13,71.68c0.51,0.9-0.04,2.09-1.25,2.64c-1.06,0.48-2.31,0.1-2.74-0.96 c-0.43-1.06,0.38-2.26,1.25-2.6C53.27,70.42,54.55,70.67,55.13,71.68z" fill="#DBEDF6"/>
  <path d="M25.95,64.75c0,0.82,0.72,1.73,2.07,1.59c1.05-0.11,1.73-0.62,1.73-1.59c0-0.96-1.11-1.63-2.12-1.59 C26.81,63.21,25.95,63.74,25.95,64.75z" fill="#DBEDF6"/>
  <path d="M37.01,68.94c-0.05,1.39,0.96,2.16,2.45,2.21c1.49,0.05,2.31-0.96,2.26-2.26 c-0.05-1.3-1.44-1.88-2.45-1.88S37.05,67.59,37.01,68.94z" fill="#DBEDF6"/>
  <path d="M39.03,63.02c-0.25,0.83,0.02,1.94,1.49,2.36c1.44,0.41,2.43-0.47,2.43-1.49 c0-1.09-0.71-1.86-1.73-1.96C40.16,61.82,39.32,62.03,39.03,63.02z" fill="#DBEDF6"/>
</svg>

<svg viewBox="0 0 128 128" xmlns="http://www.w3.org/2000/svg">
  <defs>
    <radialGradient id="SVGID_1_" cx="22.5248" cy="-37.891034" gradientTransform="matrix(0 1 -1.6812 0 0 0)" gradientUnits="userSpaceOnUse" r="53.8464">
      <stop offset="0.2225" stop-color="#F16592"/>
      <stop offset="0.358" stop-color="#F16793"/>
      <stop offset="0.4351" stop-color="#F37098"/>
      <stop offset="0.4974" stop-color="#F47D9F"/>
      <stop offset="0.547" stop-color="#F78FA8"/>
      <stop offset="0.6778" stop-color="#FBCAD6"/>
      <stop offset="0.7785" stop-color="#FEF0F4"/>
      <stop offset="0.831" stop-color="#FFFFFF"/>
    </radialGradient>
  </defs>
  <path d="M28.64,76.37 L20.57,65.95 L21.41,60.74 C21.41,60.74 15.02,40.41 25.27,24.78 C35.52,9.15 51.32,4.49 66.77,5.67 C82.22,6.85 94.1,13.32 101.9,26.8 C110.11,41 107.78,55.7 106.27,61.75 C104.76,67.8 102.41,76.2 102.41,76.2 L66.11,83.93 L28.64,76.37 Z" fill="url(#SVGID_1_)"/>
  <path d="M101.82,31.28 C101.82,31.28 123.98,12.91 125.19,11.69 C126.4,10.47 127.17,10.13 127.13,8.95 C127.09,7.8 125.95,6.3 125.95,6.3 L102.12,24.98 L100.23,28.55 L101.82,31.28 Z" fill="#9C9C9C"/>
  <path d="M96.97,23.47 C96.97,23.47 118.86,5.24 120.11,4.24 C121.36,3.24 122.24,2.82 123.36,3.41 C124.48,4 125.59,5.79 125.96,6.31 C126.08,6.48 100.22,28.56 100.22,28.56 L96.97,23.47 Z" fill="#C8C8C8"/>
  <path d="M21.41,60.75 C21.41,60.75 18.1,63.84 17.92,66.67 C17.69,70.36 18.3,77.32 19.49,79.38 C20.68,81.44 22.49,84.87 24.25,86.25 C26.16,87.75 35.5,101.64 45.67,107.44 C51.15,110.56 82.44,109.84 82.44,109.84 C82.44,109.84 95.33,91.89 94.13,92.76 C92.94,93.63 103.21,85.91 104.4,84.93 C105.59,83.95 107.81,79.61 108.68,77.77 C109.55,75.92 111.19,65.82 109.11,63.43 C107.83,61.95 106.25,61.76 106.25,61.76 C106.25,61.76 106.11,65.91 102.59,68.43 C98.79,71.15 88.16,76.56 63.07,76.35 C38.19,76.13 27.64,71.37 23.94,66.48 C22.1,64 21.41,60.75 21.41,60.75 Z" fill="#C9C9C9"/>
  <path d="M64.7,79.61 C45.47,79.37 34.88,76.35 28.45,73.37 C22.52,70.62 17.99,65.82 17.99,65.82 C17.99,65.82 17.12,68.1 17.56,72.23 C18.04,76.77 19.52,79.4 19.52,79.4 C19.52,79.4 23.21,84.42 33.75,88.07 C40.79,90.5 51.44,92.03 64.06,92.11 C98.06,92.33 108.07,79.12 108.07,79.12 C108.07,79.12 109.85,75.92 110.23,70.27 C110.44,67.11 109.9,65.06 109.9,65.06 C109.9,65.06 107.4,70.49 98.93,73.97 C92.27,76.69 81.97,79.83 64.7,79.61 Z" fill="#E0E0E0"/>
  <path d="M25.43,75.3 C24.47,75.91 25.18,80.34 25.55,81.04 C26.29,82.43 30.02,84.36 31.33,83.91 C32.64,83.46 31.99,79.2 31.49,78.13 C30.99,77.06 26.53,74.61 25.43,75.3 Z" fill="#FFFFFF"/>
  <path d="M23.71,85.66 C23.71,85.66 23.38,91.02 26.34,100.21 C29.1,108.81 32.23,113.02 33.56,114.32 C35.09,115.82 42.42,123.51 62.33,123.95 C82.24,124.39 91.61,116.83 94.26,114.31 C96.51,112.16 99.6,106.38 101.66,100.58 C104.56,92.43 104.68,84.61 104.68,84.61 C104.68,84.61 100.63,88.28 92.67,91.08 C85.75,93.52 75.86,95.16 63.29,94.86 C32.33,94.11 23.71,85.66 23.71,85.66 Z" fill="#E0E0E0"/>
  <path d="M27.98,90.3 C27.25,91.24 28.76,98.31 31.09,104.39 C32.47,108 34.82,112.12 37.19,114.08 C39.56,116.04 41.47,116.04 41.97,115.63 C42.77,114.97 41.42,113.39 40.1,110.88 C38.78,108.37 37.17,105.2 35.62,100.64 C34.5,97.34 34.24,94.38 33.12,92.65 C32.56,91.79 28.64,89.45 27.98,90.3 Z" fill="#FFFFFF"/>
  <path d="M40.65,34.3 C39.15,37.01 40.83,39.17 43.17,39.24 C46.22,39.33 46.87,35.64 45.78,34.12 C44.6,32.5 41.55,32.68 40.65,34.3 Z" fill="#D7598B"/>
  <path d="M36.14,23.93 C37.22,25.45 39.9,24.94 41.17,23.62 C42.44,22.31 42.96,20.3 41.83,19.16 C40.69,18.02 38.64,17.76 36.93,19.42 C35.22,21.08 35.48,23.01 36.14,23.93 Z" fill="#D7598B"/>
  <path d="M45.45,23.01 C44.27,24.06 44.84,26.11 46.24,26.51 C48.08,27.03 49.17,25.73 49.17,24.37 C49.17,22.66 46.84,21.77 45.45,23.01 Z" fill="#D7598B"/>
  <path d="M50.18,13.29 C50.04,14.82 51.27,16.01 52.76,16.05 C54.25,16.1 55.56,14.65 55.43,13.42 C55.26,11.8 54.51,10.98 52.76,10.93 C51.01,10.88 50.26,12.34 50.18,13.29 Z" fill="#D7598B"/>
  <path d="M32.04,32.05 C30.96,31.87 29.58,32.87 29.63,34.46 C29.68,36.05 31.04,36.51 31.82,36.56 C32.6,36.61 33.92,35.79 33.96,34.28 C34,32.77 32.86,32.19 32.04,32.05 Z" fill="#D7598B"/>
  <path d="M36.4,43.39 C35.37,42.64 33.95,43.08 33.08,44.22 C32.21,45.36 32.47,47.02 33.3,47.67 C34.13,48.33 35.79,48.15 36.62,47.06 C37.15,46.37 37.84,44.44 36.4,43.39 Z" fill="#D7598B"/>
  <path d="M49.48,35.15 C47.69,35.3 47.39,36.99 47.42,37.91 C47.45,38.83 48.38,40.38 49.95,40.17 C51.52,39.96 51.95,38.23 51.81,37.39 C51.66,36.54 51.02,35.02 49.48,35.15 Z" fill="#D7598B"/>
  <path d="M57.04,45.7 C55.86,45.77 54.37,46.66 54.33,48.59 C54.29,50.52 55.77,51.69 57.39,51.65 C59.01,51.61 60.15,50.21 60.15,48.76 C60.15,46.93 58.53,45.62 57.04,45.7 Z" fill="#D7598B"/>
  <path d="M64.56,52.22 C64.52,53.75 65.83,55.02 67.58,55.06 C69.33,55.1 71.56,52.09 69.55,50.16 C67.54,48.24 64.62,50.25 64.56,52.22 Z" fill="#D7598B"/>
  <path d="M58.88,54.49 C58.21,54.52 57,54.88 56.96,56.46 C56.92,57.82 58.14,58.38 59.02,58.43 C59.54,58.46 61.25,57.95 61.12,56.42 C60.99,54.89 59.75,54.45 58.88,54.49 Z" fill="#D7598B"/>
  <path d="M82.78,45.95 C82.82,47.96 83.99,48.97 85.76,49.07 C87.53,49.17 89.29,47.63 89.16,45.14 C89.05,42.93 87.27,42.02 85.71,42.31 C84.16,42.59 82.73,43.4 82.78,45.95 Z" fill="#D7598B"/>
  <path d="M89.51,63.26 C88.23,64.24 88.26,65.95 88.88,66.63 C89.51,67.3 91,67.85 92.3,66.79 C93.37,65.92 93.57,64.09 92.39,63.26 C91.43,62.59 90.32,62.64 89.51,63.26 Z" fill="#DBEDF6"/>
  <path d="M73.21,64.13 C71.62,64.18 70.52,65 70.57,66.53 C70.62,68.07 71.58,68.89 73.26,68.79 C74.94,68.69 75.9,67.44 75.52,65.81 C75.31,64.92 74.27,64.1 73.21,64.13 Z" fill="#DBEDF6"/>
  <path d="M74.27,72.59 C73.8,73.53 74.27,74.99 76.05,75.14 C77.83,75.28 78.74,74.47 78.79,73.41 C78.84,72.35 77.68,71.53 76.43,71.53 C75.42,71.53 74.55,72.01 74.27,72.59 Z" fill="#DBEDF6"/>
  <path d="M55.13,71.68 C55.64,72.58 55.09,73.77 53.88,74.32 C52.82,74.8 51.57,74.42 51.14,73.36 C50.71,72.3 51.52,71.1 52.39,70.76 C53.27,70.42 54.55,70.67 55.13,71.68 Z" fill="#DBEDF6"/>
  <path d="M25.95,64.75 C25.95,65.57 26.67,66.48 28.02,66.34 C29.07,66.23 29.75,65.72 29.75,64.75 C29.75,63.79 28.64,63.12 27.63,63.16 C26.81,63.21 25.95,63.74 25.95,64.75 Z" fill="#DBEDF6"/>
  <path d="M37.01,68.94 C36.96,70.33 37.97,71.1 39.46,71.15 C40.95,71.2 41.77,70.19 41.72,68.89 C41.67,67.59 40.28,67.01 39.27,67.01 C38.26,67.01 37.05,67.59 37.01,68.94 Z" fill="#DBEDF6"/>
  <path d="M39.03,63.02 C38.78,63.85 39.05,64.96 40.52,65.38 C41.96,65.79 42.95,64.91 42.95,63.89 C42.95,62.8 42.24,62.03 41.22,61.93 C40.16,61.82 39.32,62.03 39.03,63.02 Z" fill="#DBEDF6"/>
</svg>
